Origami/64x64/apps/syncthing-gtk.svg

<svg width="64" height="64" version="1" xmlns="http://www.w3.org/2000/svg">
 <path d="m4.0507997 32.000415c-0.0118 0.333995-0.050799 0.66199-0.050799 0.999985-3e-7 15.511779 12.487821 27.9996 27.999599 27.9996s27.9996-12.487821 27.9996-27.9996c0-0.337675-0.03904-0.66527-0.05078-0.999985-0.527992 15.041785-12.775817 26.999614-27.9496 26.999614-15.174183 0-27.421608-11.957829-27.9496-26.999614z" style="opacity:.2"/>
 <rect transform="matrix(0,-1,-1,0,0,0)" x="-60" y="-60" width="55.999" height="55.999" rx="28" ry="28" style="fill:#1ca4d4"/>
 <path d="m31.9996 13.000572a19.999714 19.999714 0 0 0 -19.999714 19.999714 19.999714 19.999714 0 0 0 19.999714 19.999714 19.999714 19.999714 0 0 0 19.999714 -19.999714 19.999714 19.999714 0 0 0 -1.229982 -6.827902l0.04296-0.03126-0.105459-0.148437a19.999714 19.999714 0 0 0 -18.707733 -12.991815zm0 1.999972a17.999743 17.999743 0 0 1 15.976372 9.722461l-12.479822 8.917872-21.291696 1.933973a17.999743 17.999743 0 0 1 -0.203997 -2.573964 17.999743 17.999743 0 0 1 17.999743 -17.999742zm17.077956 12.378823a17.999743 17.999743 0 0 1 0.921987 5.619919 17.999743 17.999743 0 0 1 -5.213926 12.651819l-6.867102-10.300652 11.160041-7.972486zm-13.781003 9.08967 7.347495 11.019442a17.999743 17.999743 0 0 1 -10.643848 3.50995 17.999743 17.999743 0 0 1 -17.171554 -12.667819l20.467707-1.863973z" style="opacity:.2"/>
 <path d="m31.9996 12.000715a19.999714 19.999714 0 0 0 -19.999714 19.999714 19.999714 19.999714 0 0 0 19.999714 19.999714 19.999714 19.999714 0 0 0 19.999714 -19.999714 19.999714 19.999714 0 0 0 -1.229982 -6.827902l0.042-0.032-0.103999-0.147998a19.999714 19.999714 0 0 0 -18.707733 -12.991814zm0 1.999971a17.999743 17.999743 0 0 1 15.975772 9.721861l-12.479822 8.917873-21.291696 1.933972a17.999743 17.999743 0 0 1 -0.203997 -2.573963 17.999743 17.999743 0 0 1 17.999743 -17.999743zm17.077756 12.377823a17.999743 17.999743 0 0 1 0.921987 5.62192 17.999743 17.999743 0 0 1 -5.213926 12.651819l-6.867902-10.299853 11.159841-7.973886zm-13.781803 9.08987 7.347895 11.019843a17.999743 17.999743 0 0 1 -10.643848 3.51195 17.999743 17.999743 0 0 1 -17.171554 -12.667819l20.467707-1.863974z" style="fill:#ffffff"/>
 <g transform="matrix(1.9999714,0,0,1.9999714,5.760572e-5,1.000715)" style="opacity:.2">
  <circle cx="7" cy="18" r="2"/>
  <circle cx="22" cy="23" r="2"/>
  <circle cx="25" cy="12" r="2"/>
  <circle cx="18" cy="17" r="2"/>
 </g>
 <g transform="matrix(1.9999714,0,0,1.9999714,5.760572e-5,8.866e-4)" style="fill:#ffffff">
  <circle cx="7" cy="18" r="2"/>
  <circle cx="22" cy="23" r="2"/>
  <circle cx="25" cy="12" r="2"/>
  <circle cx="18" cy="17" r="2"/>
 </g>
 <path d="M 32 4 C 16.488222 4 4 16.488222 4 32 C 4 32.113554 4.0112846 32.224034 4.0175781 32.335938 C 4.3691163 17.134398 16.710946 5 32 5 C 47.289054 5 59.630884 17.134398 59.982422 32.335938 C 59.988797 32.224034 60 32.113554 60 32 C 60 16.488222 47.511778 4 32 4 z" style="fill:#ffffff;opacity:.2"/>
</svg>

<svg xmlns="http://www.w3.org/2000/svg" width="64" height="64" version="1">
 <path style="opacity:0.2" d="m 4.0507997,32.000415 c -0.0118,0.333995 -0.050799,0.66199 -0.050799,0.999985 C 4.0000004,48.512179 16.487822,61 31.9996,61 47.511378,61 59.9992,48.512179 59.9992,33.0004 c 0,-0.337675 -0.03904,-0.66527 -0.05078,-0.999985 C 59.420428,47.0422 47.172603,59.000029 31.99882,59.000029 16.824637,59.000029 4.5772122,47.0422 4.0492197,32.000415 Z"/>
 <rect style="fill:#1ca4d4" width="55.999" height="55.999" x="-60" y="-60" rx="28" ry="28" transform="matrix(0,-1,-1,0,0,0)"/>
 <path style="opacity:0.2" d="M 31.9996,13.000572 A 19.999714,19.999714 0 0 0 11.999886,33.000286 19.999714,19.999714 0 0 0 31.9996,53 19.999714,19.999714 0 0 0 51.999314,33.000286 19.999714,19.999714 0 0 0 50.769332,26.172384 l 0.04296,-0.03126 -0.105459,-0.148437 A 19.999714,19.999714 0 0 0 31.9991,13.000872 Z m 0,1.999972 a 17.999743,17.999743 0 0 1 15.976372,9.722461 L 35.49615,33.640877 14.204454,35.57485 A 17.999743,17.999743 0 0 1 14.000457,33.000886 17.999743,17.999743 0 0 1 32.0002,15.001144 Z m 17.077956,12.378823 a 17.999743,17.999743 0 0 1 0.921987,5.619919 17.999743,17.999743 0 0 1 -5.213926,12.651819 L 37.918515,35.350453 49.078556,27.377967 Z m -13.781003,9.08967 7.347495,11.019442 A 17.999743,17.999743 0 0 1 32.0002,50.998429 17.999743,17.999743 0 0 1 14.828646,38.33061 l 20.467707,-1.863973 z"/>
 <path style="fill:#ffffff" d="M 31.9996,12.000715 A 19.999714,19.999714 0 0 0 11.999886,32.000429 19.999714,19.999714 0 0 0 31.9996,52.000143 19.999714,19.999714 0 0 0 51.999314,32.000429 19.999714,19.999714 0 0 0 50.769332,25.172527 l 0.042,-0.032 -0.103999,-0.147998 A 19.999714,19.999714 0 0 0 31.9996,12.000715 Z m 0,1.999971 a 17.999743,17.999743 0 0 1 15.975772,9.721861 L 35.49555,32.64042 14.203854,34.574392 A 17.999743,17.999743 0 0 1 13.999857,32.000429 17.999743,17.999743 0 0 1 31.9996,14.000686 Z m 17.077756,12.377823 a 17.999743,17.999743 0 0 1 0.921987,5.62192 17.999743,17.999743 0 0 1 -5.213926,12.651819 L 37.917515,34.352395 49.077356,26.378509 Z m -13.781803,9.08987 7.347895,11.019843 A 17.999743,17.999743 0 0 1 31.9996,50.000172 17.999743,17.999743 0 0 1 14.828046,37.332353 l 20.467707,-1.863974 z"/>
 <g style="opacity:0.2" transform="matrix(1.9999714,0,0,1.9999714,5.760572e-5,1.000715)">
  <circle cx="7" cy="18" r="2"/>
  <circle cx="22" cy="23" r="2"/>
  <circle cx="25" cy="12" r="2"/>
  <circle cx="18" cy="17" r="2"/>
 </g>
 <g style="fill:#ffffff" transform="matrix(1.9999714,0,0,1.9999714,5.760572e-5,8.866e-4)">
  <circle cx="7" cy="18" r="2"/>
  <circle cx="22" cy="23" r="2"/>
  <circle cx="25" cy="12" r="2"/>
  <circle cx="18" cy="17" r="2"/>
 </g>
 <path style="opacity:0.2;fill:#ffffff" d="M 32 4 C 16.488222 4 4 16.488222 4 32 C 4 32.113554 4.0112846 32.224034 4.0175781 32.335938 C 4.3691163 17.134398 16.710946 5 32 5 C 47.289054 5 59.630884 17.134398 59.982422 32.335938 C 59.988797 32.224034 60 32.113554 60 32 C 60 16.488222 47.511778 4 32 4 z"/>
</svg>
